2019/02/basketball-predictions/assets/harvard-w.svg

<svg viewBox="0 0 133.96 78.79" xmlns="http://www.w3.org/2000/svg"><path d="m37.75 4.92h58.46v.46 23.23a46 46 0 0 1 -7.55 25.61 56.91 56.91 0 0 1 -10.66 12.15 59.7 59.7 0 0 1 -9.89 7c-1.11.63-1.11.63-2.27.02a61.42 61.42 0 0 1 -15.64-12.7 50.87 50.87 0 0 1 -8.4-12.85 45.34 45.34 0 0 1 -3.29-10.49 48.36 48.36 0 0 1 -.76-9q0-11.49 0-23zm23.56 12.32v-5.24h-8.61v5.26h1.68v29a1.47 1.47 0 0 0 0 .21c0 .23-.08.29-.3.29h-1.38v5.24h8.61v-5.3h-1.62v-12.07h14.58v12.08h-1.63v5.29h.22 8.14c.24 0 .28-.1.28-.31v-4.69a2 2 0 0 0 0-.27h-1.67v-29.49h1.65v-5.24h-8.61v5.26h1.63v12h-14.59v-12.02z" fill="#a83131"/></svg>

<svg id="Layer_1" data-name="Layer 1" xmlns="http://www.w3.org/2000/svg" viewBox="0 0 133.96 78.79"><defs><style>.cls-1{fill:#a83131;}</style></defs><title>harvard</title><path class="cls-1" d="M37.75,4.92H96.21v.46c0,7.74,0,15.48,0,23.23a46,46,0,0,1-7.55,25.61A56.91,56.91,0,0,1,78,66.37a59.7,59.7,0,0,1-9.89,7C67,74,67,74,65.84,73.39A61.42,61.42,0,0,1,50.2,60.69a50.87,50.87,0,0,1-8.4-12.85,45.34,45.34,0,0,1-3.29-10.49,48.36,48.36,0,0,1-.76-9q0-11.49,0-23ZM61.31,17.24V12H52.7v5.26h1.68v29a1.47,1.47,0,0,0,0,.21c0,.23-.08.29-.3.29H52.7V52h8.61V46.7H59.69V34.63H74.27V46.71H72.64V52l.22,0H81c.24,0,.28-.1.28-.31V47a2,2,0,0,0,0-.27H79.61V17.24h1.65V12H72.65v5.26h1.63v12H59.69V17.24Z"/></svg>
